src/Components/Menu/images/Group 179.svg

<svg width="90" height="31" viewBox="0 0 90 31" fill="none" xmlns="http://www.w3.org/2000/svg">
<path d="M74.4259 2.26808e-06C71.1816 -0.00174228 68.0177 1.00295 65.3759 2.87384C62.7341 4.74473 60.7461 7.38845 59.6894 10.436C58.6872 7.58104 56.8653 5.08019 54.4488 3.24223C52.0323 1.40427 49.127 0.309666 46.0915 0.0935589C43.056 -0.122548 40.0232 0.549306 37.3677 2.02617C34.7121 3.50304 32.55 5.72025 31.1483 8.40407V0.0812795H29.4124V15.0176C29.4075 15.1802 29.4042 15.3427 29.4042 15.5012V15.9238C29.2796 19.5256 27.7366 22.9348 25.1073 25.4175C22.478 27.9002 18.9727 29.258 15.3459 29.1985C11.719 29.1391 8.2607 27.6672 5.71528 25.0996C3.16985 22.5321 1.74087 19.0742 1.73591 15.4703V0.0812795H0V15.4947C0.0126735 18.9563 1.19297 22.3138 3.35224 25.0305C5.51151 27.7472 8.5251 29.6664 11.9114 30.4812C15.2976 31.296 18.861 30.9594 22.0321 29.5252C25.2032 28.0911 27.7988 25.6422 29.4042 22.5699V30.8854H31.1401V15.9515C31.145 15.7995 31.1483 15.6467 31.1483 15.4947V15.0452C31.2597 11.434 32.7974 8.01149 35.4287 5.51781C38.0601 3.02414 41.5736 1.65972 45.2095 1.71964C48.8454 1.77956 52.3114 3.25898 54.8581 5.83798C57.4048 8.41699 58.8273 11.8883 58.8182 15.5012V30.8854H60.5525V22.4658C61.8603 25.0024 63.8479 27.1309 66.2959 28.6165C68.7439 30.1022 71.5573 30.8873 74.4259 30.8854C83.0277 30.8854 90 23.9711 90 15.4427C90 6.91426 83.0277 2.26808e-06 74.4259 2.26808e-06ZM74.4259 29.1639C66.7836 29.1639 60.5876 23.021 60.5876 15.4427C60.5876 7.86439 66.7836 1.72145 74.4259 1.72145C82.0681 1.72145 88.2682 7.86439 88.2682 15.4427C88.2682 23.021 82.0689 29.1639 74.4259 29.1639Z" fill="#FED132"/>
<path d="M31.8561 27.8451V3.07177V0H28.8095H25.7628V3.07177H28.8095V27.8451H26.6585V30.916H28.8095H31.8561H34.0071V27.8451H31.8561Z" fill="white"/>
</svg>

<svg width="90" height="31" fill="none" xmlns="http://www.w3.org/2000/svg"><path d="M74.426 0a15.647 15.647 0 0 0-9.05 2.874 15.487 15.487 0 0 0-5.687 7.562 15.485 15.485 0 0 0-5.24-7.194 15.664 15.664 0 0 0-17.081-1.216 15.526 15.526 0 0 0-6.22 6.378V.081h-1.736v14.937c-.005.162-.008.325-.008.483v.423a13.71 13.71 0 0 1-4.297 9.494 13.888 13.888 0 0 1-9.761 3.78 13.881 13.881 0 0 1-9.63-4.098 13.703 13.703 0 0 1-3.98-9.63V.081H0v15.414a15.415 15.415 0 0 0 3.352 9.536 15.59 15.59 0 0 0 8.56 5.45 15.67 15.67 0 0 0 10.12-.956 15.536 15.536 0 0 0 7.372-6.955v8.315h1.736V15.951c.005-.152.008-.304.008-.456v-.45a13.709 13.709 0 0 1 4.28-9.527A13.888 13.888 0 0 1 45.21 1.72c3.635.06 7.101 1.539 9.648 4.118a13.703 13.703 0 0 1 3.96 9.663v15.384h1.735v-8.42a15.514 15.514 0 0 0 5.743 6.151 15.652 15.652 0 0 0 8.13 2.27C83.028 30.885 90 23.97 90 15.442 90 6.914 83.028 0 74.426 0Zm0 29.164c-7.642 0-13.838-6.143-13.838-13.721 0-7.579 6.196-13.722 13.838-13.722 7.642 0 13.842 6.143 13.842 13.722 0 7.578-6.2 13.72-13.842 13.72Z" fill="#FED132"/><path d="M31.856 27.845V0h-6.093v3.072h3.046v24.773h-2.15v3.071h7.348v-3.07h-2.15Z" fill="#fff"/></svg>
